X:1
T:Title
%%score { 1 | 2 }
L:1/8
M:4/4
K:Ab
V:1 treble nm="Grand Piano"
V:2 bass 
V:1
 z4 z2[Q:1/4=100] [CE]2 | [Ec]2 [Ec]2 [Fd]2 [Ec]>[Ec] | c2 B4 E2 | B2 B>B c2 B2 |[M:3/4] [A,CA]6 | %5
[M:1/4] [A,EA]2 |[M:4/4] [A,FA]2 [A,DF]2 [DFA]2 [A,EG]>[A,DF] | [A,DF]2 [A,CE]4 [CEA]2 | %8
 [EG]2 [EG][EG] [=DA]2 [DF]2 |[M:3/4] E6 |[M:1/4] E2 |[M:4/4] c3 c e2 A>B | A2 G4 E2 | %13
 B3 B d2 c>B |[M:3/4] [Ec]6 |[M:1/4] [Ec]2 |[M:4/4] e2 e2 c2 B>c | [Fe]2 [Fd]4 F2 | E2 =DE c3 B | %19
[M:3/4] [CA]6 |] %20
V:2
 z4 z2 [A,,E,]2 | [A,,A,]2 [A,,A,]2 [A,,A,]2 [A,,A,]>[A,,A,] | [E,A,E]2 [E,G,E]4 [E,G,]2 | %3
 [E,G,D]2 [E,G,D]>[E,G,D] [E,G,E]2 [E,G,D]2 |[M:3/4] A,,6 |[M:1/4] C,2 |[M:4/4] D,2 D,2 D,2 D,>D, | %7
 A,,2 A,,4 A,,2 | [B,,B,]2 [B,,B,][B,,B,] [B,,F,]2 [B,,A,]2 |[M:3/4] [E,G,]6 |[M:1/4] [E,G,]2 | %11
[M:4/4][K:treble] [A,E]3 [A,E] [A,CA]2 [A,CE]>[A,CE] | [E,B,E]2 [E,B,D]4 [E,G,]2 | %13
 [E,G,E]3 [E,G,E] [E,B,E]2 [E,A,E]>[E,G,E] |[M:3/4] [A,,A,]6 |[M:1/4] [A,,A,]2 | %16
[M:4/4][K:treble] [A,CE]2 [A,CE]2 [A,E]2 [A,_G]>[A,G] | [D,A,]2 [D,D]4 [D,A,D]2 | %18
 [E,A,C]2 [E,A,_C][E,A,=C] [E,A,E]3 [E,G,D] |[M:3/4] [A,,A,]6 |] %20

